/* XPM */
static char *lordtrollcoin256[] = {
/* columns rows colors chars-per-pixel */
"256 256 13319 1 ",
"  c None",
". c None",
"X c None",
"o c None",
"O c #52524F",
"+ c None",
"@ c None",
"# c None",
"$ c None",
"% c None",
"& c None",
"* c #FFFFFF",
"= c #FFFFFF",
"- c #F9F8F8",
"; c #EEEEEE",
": c #F4F4F4",
"> c #F0F1F0",
", c #ECECEB",
"< c #E8E8E8",
"1 c #E6E5E5",
"2 c #DFDFDF",
"3 c #DDDCDB",
"4 c #DCDBDA",
"5 c #D9DAD9",
"6 c #E0DFDE",
"7 c #EBEAE9",
"8 c #F2F2F1",
"9 c #F4F4F2",
"0 c #FDFCFC",
"q c None",
"w c None",
"e c None",
"r c None",
"t c None",
"y c None",
"u c None",
"i c #FFFFFF",
"p c #FFFFFF",
"a c #F4F4F1",
"s c #DFDFDE",
"d c #CACAC9",
"f c #C5C5C4",
"g c #B0B0AF",
"h c #9B9C9A",
"j c #868786",
"k c #787777",
"l c #676765",
"z c #5B5A58",
"x c #484847",
"c c #393736",
"v c #313030",
"b c #2C2B2A",
"n c #282626",
"m c #242322",
"Q c #232221",
"W c #21201F",
"E c #22211F",
"R c #21211F",
"T c #262523",
"Y c #2C2C2A",
"U c #353433",
"I c #42423F",
"P c #636360",
"A c #7A7A77",
"S c #8D8D8B",
"D c #A0A09F",
"F c #B4B3B3",
"G c #CCCCCC",
"H c #D7D5D5",
"J c #E9E8E7",
"K c #F7F6F6",
"L c None",
"Z c None",
"C c None",
"V c None",
"B c #FFFFFF",
"N c #EBEBEB",
"M c #D1D1D0",
"! c #B1B1B0",
"~ c #A2A4A1",
"^ c #81827F",
"/ c #61615F",
"( c #484745",
") c #2D2D29",
"_ c #191916",
"` c #0E0E0B",
"[ c #060603",
"] c #040300",
"{ c #040401",
"} c #090705",
"| c #0A0907",
/* pixels */
"                                                                                                    .XoXO      +@#$%&**=-;:>,<1234567890=**&%$#@+      OXoXq                                                                                                    ",
"                                                                                                wXew     rtyuipasdfghjklzxcvbnmQWERTYUIOPASDFGHJKpiuytr     wLXw                                                                                                ",
"                                                                                            wZew    XCVBNM!~^/()_`[]{[}|                 [     E        BVCX    w Zw                                                                                            ",
"                                                                                         .oX                                                                        Xo.                                                                                         ",
"                                                                                      .oq   +                                                                      +   .o.                                                                                      ",
"                                                                                   wXq                                                                        ]_          .Xw                                                                                   ",
"                                                                                 ZX                                                                                          XZ                                                                                 ",
"                                                                              wo   +                                                                                  R     +   ow                                                                              ",
"                                                                            .Z  w                                                                                              w  X.                                                                            ",
"                                                                          XX  @                                                                                                  @  XX                                                                          ",
"                                                                        X                                                                                                              X                                                                        ",
"                                                                      XO                                                                                                                OX                                                                      ",
"                                                                    XO                                                                                                                    OX                                                                    ",
"                                                                  .w                                                                                                                        O.                                                                  ",
"                                                                .X                                                                                                                            X.                                                                ",
"                                                              wX                                                                                                                                Xw                                                              ",
"                                                             X                               _                                                                                                    X                                                             ",
"                                                           .O @  l                                          Q                        Y                                                           @ O.                                                           ",
"                                                                  `                                                                                                                                                                                             ",
"                                                        .O  *                        R   m                                                                                                         *  O.                                                        ",
"                                                       e                                                                                                                   Y                      [     e                                                       ",
"                                                     .w t                                                                                                                                              t O.                                                     ",
"                                                    o w                     `                                                                                                                            w o                                                    ",
"                                                  w                                                                                                                            n                             w                                                  ",
"                                                 .O                                                                                                                                                          O.                                                 ",
"                                                o .                                                                                                                                                          . o                                                ",
"                                              wo                                                                               E                                                                                ow                                              ",
"                                             ww                                                                                                    T                                                             Ow                                             ",
"                                            Xqq                                                                                                                                                                  . X                                            ",
"                                           X w                                                                                                                         Y                                          w X                                           ",
"                                          o                                                 R                                                                                                                        o                                          ",
"                                         o                                                                                                                                                                            o                                         ",
"                                        X                                                                                                                                                                              X                                        ",
"                                                                                                                    )Y                                                                                                                                          ",
"                                                                                              Y                                                                                                                                                                 ",
"                                                                                                                                                                                                                                                                ",
"                                                                                                                                                                                                                                                                ",
"                                                                                                                                                                                                                                                                ",
"                                                                                                                                                                   Q                                                                                            ",
"                                                                                                                                                                                                                                                                ",
"                                X                                                         Q                                                                                                 _                                  X                                ",
"                               o                                                                                                                                                                                                o                               ",
"                                                                                    m                                                                                                                                                                           ",
"                             X                                                                       _     n                                                                                        n                             X                             ",
"                            XO                                                                            n                                                                           Y               n                           OX                            ",
"                           wqw (                R                                                                                                 _                                                                               w w                           ",
"                          OX                                                                                                                                                                           n n                          ZO                          ",
"                                                                                                               n                                         n                                              n                                                       ",
"                         o                                                                                                                                                                                  n                         e                         ",
"                        .                                                                                                                                             Y                                                                .                        ",
"                       wX                                                                                                                                                                                                               w                       ",
"                                                                                                                                                                                                       n                                                        ",
"                      o                                                                                                                                        Y                                                                         e                      ",
"                     .O                                                                                                                                                                                                                  O.                     ",
"                    wo                                                                                                                                                                                                                     w                    ",
"                    e &                          R                                                                     n                                                                                                                                        ",
"                   .O                                                                                                                                                                                                  n                   Oq                   ",
"                   o                                                                                                                                                                                                                                            ",
"                  X                                                      _                                                                                                                                                                   Z                  ",
"                 .O                                           Y                                                                                                                                                     n                        O.                 ",
"                 ZX                                                                       `                                                                                                                                                  XZ                 ",
"                e                                                      E                                                                                                                                                                                        ",
"               wq                       m                                                                                                                                                                                                       w               ",
"               X                        R                                            n      T                                                                                                                                                   Z               ",
"              Zwt                      n                                              n  n                                                                                             n    Y                  n                               tOZ              ",
"              e                                                                      n                                                                                                                                                                          ",
"                                             mW                                                                                                                                                                                                   Z             ",
"             .w                n                                                      n                                                                                                                                         nn               wq             ",
"            X                 n                                                 n n       n                                                 n                                                                n             n n                     Z            ",
"           wqw                         n                                                                                              R                                                                   E                   n                   wqw           ",
"           X              Y                                                       W                                                                    m                                                                      nn      Q             Z           ",
"          wqw                                                                                       Q                                           _                                                  E                          n n                  wqO          ",
"          e                                                                                                                                                                       `                                                              |              ",
"          w                     n                                                                                                 `                                                                                            n                     w          ",
"         XO                  n                                                                                                                                                                                                                       OZ         ",
"         Z                                                                                                                                                                                            Y                                                         ",
"        ZOt              n                                                                                                                                                                                                                            O         ",
"        .                 n                     T                                                                                                                                                                           n n                        q        ",
"       w +                                                                                                                                                                                                                                            + w       ",
"                                                                                                                                                                                                                                                                ",
"       q                                                                                                                                                                                                                                                        ",
"      XO              n                                                                                                                                                                                                                                 O       ",
"      Z                                                                                                                                                                                                                                                         ",
"     w                                                                                                                                                                                                                                                    w     ",
"     X                n                                                                                                                                                                                                                                         ",
"     q                 n                                                                                                                                                                                                                                        ",
"    .                                                                                                                                                                                                                                                      q    ",
"                                                                                                                                                                                                                                                                ",
"                                                                                                                                                                                                                                         n                      ",
"   .                  n                                                                                                                                                                                                                       )             q   ",
"   o             Yn                                                                                                                                                                                                                                             ",
"                                                                                                                                                                                                                              n                                 ",
"  w                                                                                                                                                                                                                                                          w  ",
"  X               n                                                                                                                                                                                                                                             ",
"  e                           n                                                                                                                                                                                                                                 ",
"   o                         n                                                                                                                                                                                                                              o   ",
" q                                  n                                                                                                                                                                                                                         q ",
" e                       n n  n  n n                                                                                                                                                                                                                            ",
" e                   n n  n  n                                                                                                                                                                                            m                                     ",
"                                                                                                                                                                                                                                                                ",
"q @                            T                                                                                                                                                                                           Q Q Q                             @ q",
"X C                                                                                                                                                                                                                                                             ",
"o  (                                                                                                                                                                                                                                                            ",
"Z  E                                                                                                                                                                                                                                                            ",
"                                                                                                                                                                                                                                                                ",
"                                                                                                                                                                                                                                                                ",
" t                                                                                                                                                                                                                                           R                  ",
"                                                                                                                                                                                                                                                                ",
"                                                                                                                                                                        <                                                                                       ",
"                                                                                                                                                                                                                                                                ",
".           Y                                                                                                                                                                                                                                                  .",
"@                                                                                              _                                                                                                                                                               @",
"                                                                                                                                                                                                                                                                ",
"#                                                                                                                                      E   I                                                                                                                    ",
"                                                                                                                                                                                                                                                                ",
"                                                                                                                                                                                                                                                                ",
"                 _                                                                                                                                                                                                                         _                    ",
"                                                                                                                                                                                                                                                     `          ",
"           m                                                                                                                                                                                                                                                    ",
"                                                                                                                                                                                                                                                                ",
"                                                                                                                                                                                                                                                                ",
"                                                                                                                                                                                                                                                    T           ",
"                                                                                                                                                                                                                                                                ",
"                                                                                                                                    `                                                                                                                           ",
"                                                                                                                                                                                                                                                                ",
"                                                                                                                                                                                                                                                                ",
"                                                                                                                                                                                                                                                                ",
"                                                                     `                                                                                                                                                                                          ",
"                                                                                                                                                                                                                                                                ",
"                                                                                                                                                                                                                                                                ",
"                                                                                                                                                                                                                                                                ",
"                                                                                                                                                                                                                                                                ",
"                                                                                                                                                                     `                                                                                          ",
"                                                                                                                                                                 ``                                                                                             ",
"                                                                                                                                                                                                                                                                ",
"                                                                                                                                                                                                                                                                ",
"                                                                                                                                                                                                  _                                                             ",
"                                                                                                                                                                                             _                                                                  ",
"                                                                                                                                                                                                                                                                ",
"                                                                                                                                                                                                                                                                ",
"                                                                                                                                                                           `              _                                                                     ",
"                                                                                                                                                                     `                                                                                          ",
"#           b   Q        Q                                                                                                                                                                                                              Qm                      ",
"                                                                                                                                                                                                                                                                ",
"@                                                                                                                                                                                 _                                                                            @",
".                              R                                                                                                                                                                                                                               .",
"                                R                                                                                                                                                      _                                                                        ",
"                                                                                                                                                                                                                                                                ",
"                                                                               _                                                                   x                                                                                                            ",
" t                                                                                                                                                                                                                                                 b            ",
"             Y                                                                                                                  `                                                                                                                               ",
"                                                                                                                                                                                                                                                                ",
"                                                                                                                                                                   `                                                                                            ",
"e                                                                                                                                                                                                                                                               ",
"  C                                                                                                                                                                                                                                                             ",
"q @                                                                                                                                                     `                                                                                                       ",
"                                                                                                                                                                                                                                                                ",
"                                                                                                                                                                                                                                                                ",
" e             b                                                                                                                                                                                                                                                ",
" q                                                                                                          U                                                                                                                                                 q ",
"   o                                   Y                                                                                                                                                                                                                    o   ",
"                                                                                                                                                                                                                                                                ",
"  Z                                                                                                                                                                                                        E                                                    ",
"  w                                                                                                                                          `                                                                                                               O  ",
"                                                                                                                                                         __                                          _                                                          ",
"   e                                    n                                                                                                                                                                                                      E                ",
"   .                                                                          1                                                                                                                                                                                 ",
"                                                                                                                                                                                                                                                                ",
"    e                                                                                                                                                                                                                                                           ",
"    .                                       Q                                                                                                _                                                                                                                  ",
"                                                                                                                                                                                                                        n                                       ",
"     Z                                                                                                                               `                                                                                                                          ",
"     w                                                                                                                 _                                                                                                                                  O     ",
"                                                `                                                                                                                                                                  Y                                            ",
"      ZO                                                                                                       `                                                                                                                                        O       ",
"                                                                                                                                                                                                                                                                ",
"                                                                                                                                                                                                                                                                ",
"       w +                                                                                                                                                                                                                                              O       ",
"        q                                  n                                                                                                                                                                       n                                            ",
"         O                                                                                                                                                                                                                                            O         ",
"                                                                                                                                                                                                                                                                ",
"         ZO                                                                                                                                                                                                                                          O          ",
"          w                                                                                                                                                                                                                                          O          ",
"                                           n                                                                                                                                       n                                                                            ",
"          Oqw                                                                                                                                                                            TT                      n                                 w O          ",
"                                                                                                                                                                                                                                                                ",
"           Oqw                                                                                                                                                                                                                                    w O           ",
"                                                                                                                                                                                  n                                                                             ",
"             qw                                                                                                                                                                                                                                  w              ",
"                              n                                                                                                                                                                                                                                 ",
"                                  n n  n                                                                                                                                          n                    b                         n                              ",
"               O                                                                                                                                     _                                                                                          O               ",
"                                                                                                                                                                                                                                                                ",
"               w                                                                                                                                    m                                                                                           O               ",
"                                                                                                                                                                                                                                                                ",
"                  X                                                                                                                                                                               Q                                          X                  ",
"                 qO                                                                                                                                                                                                                          O                  ",
"                                                                                                                                                                                                                                                                ",
"                                                                                                                                                                                                                                                                ",
"                   qO                                                                                                                                                                                                                      O                    ",
"                                                                                                                                                                                                                                                                ",
"                    O                                                                                                                                                                                                      )               O                    ",
"                     qO                                                                                                                                                                                                                  Oq                     ",
"                                                                                                                                                                   )                                                                                            ",
"                                                                                                                                                                                                                                                                ",
"                                                                                                                                                                                                                                        O                       ",
"                        q                                                                                                                                                                                                              q                        ",
"                                                                                                                R                                                                        TT                                                                     ",
"                                                                  `                                         Em                                                                                                                                                  ",
"                          O                           Y                                                                                                                                                    n                         O                          ",
"                           O w                                                                                                                                                                                                    w O                           ",
"                            ZO                                                                                n                                                                                                                   O                             ",
"                                                           Y                Y                            TT                                                                                                                                                     ",
"                                                                                                                                                                                                                                                                ",
"                                                                            E                                                                                                                                                                                   ",
"                                                             E                                                                                                                                                                                                  ",
"                                                                                                                                                                             m                                                                                  ",
"                                                                                                                                                                                                                                                                ",
"                                                                                                                                                                                                                                                                ",
"                                        {                                                         Y                                                                                                                                                             ",
"                                                                                                                                                                                                                                                                ",
"                                                                                                        Y                                                                                                                                                       ",
"                                                                                                                                                                                                                                                                ",
"                                                                                                                                                                                                                                                                ",
"                                                                                                                                                                                                                                                                ",
"                                          e                                                                                                                                                                                                                     ",
"                                             w                                                                                                                                                                    w                                             ",
"                                            Z .                                                                                                                                                                  . Z                                            ",
"                                             wO                                                                                                                                                                  Ow                                             ",
"                                              O                                                                                                                                                                  O                                              ",
"                                                  .                                                                                                                                                          .                                                  ",
"                                                 qO                                                                                                                             R                            O.                                                 ",
"                                                  w                                                                                                                                                          w                                                  ",
"                                                      w                                                                                                                         R                        w                                                      ",
"                                                     qO                                                                                                                                                  O.                                                     ",
"                                                                                  Y                                                              TY                                                                                                             ",
"                                                        qO                             _               T                                                    EQ                                        Oq                                                        ",
"                                                                                                                                                        n                                                                                                       ",
"                                                           qO @                                                                                                                                  @ Oq                                                           ",
"                                                             Z                                                                                                                                    Z                                                             ",
"                                                              w                                   Y                                                                                              w                                                              ",
"                                                                q                                                                                                                              q                                                                ",
"                                                                  qO                                                                                                                        Oq                                                                  ",
"                                                                    ZO                                                                                                                    OZ                                                                    ",
"                                                                      ZO                                                                                                                O                                                                       ",
"                                                                        Z                                                                                                                                                                                       ",
"                                                                          Z   @                                                                                                  @   Z                                                                          ",
"                                                                            q   w                                                                                              w   q                                                                            ",
"                                                                              w    +                                                                                        +    w                                                                              ",
"                                                                                 Z                                                                                                                                                                              ",
"                                                                                   wZ                                                                                       w                                                                                   ",
"                                                                                      q     +                                                                      +     q                                                                                      ",
"                                                                                         q                                                                            q                                                                                         ",
"                                                                                            w  O    X                                                           O  w                                                                                            ",
"                                                                                                wZ O     r                          `                 r     O Zw                                                                                                ",
"                                                                                                    q   O      +                                +      O   q                                                                                                    "
};