/* XPM */
static char *lordtrollcoin16[] = {
/* columns rows colors chars-per-pixel */
"16 16 221 1 ",
"  c None",
". c None",
"X c #DBCFA7",
"o c #8E8976",
"O c #6F6B5A",
"+ c #777260",
"@ c #736F5D",
"# c #7C7864",
"$ c #8B8572",
"% c None",
"& c None",
"* c None",
"= c #89846F",
"- c #7B7764",
"; c #6C6958",
": c #74705E",
"> c #686454",
", c #434239",
"< c #504E42",
"1 c #736F5D",
"2 c #777360",
"3 c #908973",
"4 c None",
"5 c None",
"6 c None",
"7 c None",
"8 c #85806D",
"9 c #7C7764",
"0 c #6E6B59",
"q c #787360",
"w c #555246",
"e c #7E7964",
"r c #B4AC8D",
"t c #615E4F",
"y c #605D4E",
"u c #6C6857",
"i c #5D5A4C",
"p c #86816B",
"a c #87826B",
"s c #6B6757",
"d c #686555",
"f c #5C594B",
"g c #837E69",
"h c #AEA689",
"j c #4B4940",
"k c #B3AA8D",
"l c #615D4F",
"z c #4E4C41",
"x c #202020",
"c c #514E44",
"v c #88836B",
"b c None",
"n c #6A6656",
"m c #1C1C1D",
"Q c #77725E",
"W c #989177",
"E c #504D42",
"R c #979077",
"T c #B1A98A",
"Y c #545145",
"U c #89826C",
"I c #B6AD8E",
"P c #1C1D1E",
"A c #676352",
"S c None",
"D c #8A846C",
"F c #383731",
"G c #383732",
"H c #C6BD9B",
"J c #D5CAA4",
"K c #E3D8B0",
"L c #D3C9A4",
"Z c #D0C6A2",
"C c #D8CDA7",
"V c #D1C6A1",
"B c #D9CEA8",
"N c #AAA283",
"M c #393731",
"! c #383732",
"~ c #857F66",
"^ c #7E7963",
"/ c #47453C",
"( c #88826B",
") c #C8BE9D",
"_ c #838072",
"` c #716C5A",
"[ c #9E987C",
"] c #BFB590",
"{ c #A09A86",
"} c #59564A",
"| c #817B67",
/* pixels */
" .  XoO+@#$%  & ",
". *=-;:>,<1234 5",
"67890qwertyuip*6",
" asdfghj9klzxcv ",
"bnmQWERTYUIOYPAS",
"DFGHJKLZXCVBNM!~",
"^/()_`[]{}|     ",
"   W            ",
"                ",
"                ",
"                ",
"                ",
"        W       ",
"6              6",
"5 4          4 5",
" 5            5 "
};