/* XPM */
static char *lordtrollcoin128[] = {
/* columns rows colors chars-per-pixel */
"128 128 6289 1 ",
"  c None",
". c None",
"X c #A59D81",
"o c None",
"O c #CDCDCA",
"+ c None",
"@ c None",
"# c None",
"$ c None",
"% c #D4D2D0",
"& c #BEBEBD",
"* c #AAAAA9",
"= c #9C9B9B",
"- c #888887",
"; c #878788",
": c #7E7E7E",
"> c #777677",
", c #727272",
"< c #747474",
"1 c #848483",
"2 c #868685",
"3 c #9B9B9A",
"4 c #ADADAC",
"5 c #C1C1C0",
"6 c #DCDBD9",
"7 c None",
"8 c None",
"9 c None",
"0 c None",
"q c None",
"w c None",
"e c #D2D2D0",
"r c #A1A1A0",
"t c #757575",
"y c #4F5050",
"u c #363738",
"i c #222424",
"p c #131414",
"a c #0C0C0C",
"s c #090907",
"d c #090906",
"f c #0C0B08",
"g c #0D0B06",
"h c #110F09",
"j c #12100A",
"k c #13110A",
"l c #100F09",
"z c #0E0D08",
"x c #0D0D08",
"c c #090905",
"v c #080806",
"b c #161718",
"n c #262627",
"m c #3C3C3C",
"Q c #595959",
"W c #7D7C7C",
"E c #A4A2A1",
"R c #D0D0CE",
"T c None",
"Y c None",
"U c None",
"I c None",
"P c #909090",
"A c #616262",
"S c #404040",
"D c #1F1F1F",
"F c #100F0C",
"G c #16150D",
"H c #29281B",
"J c #433F2E",
"K c #615C46",
"L c #7D775F",
"Z c #948D72",
"C c #B2A98A",
"V c #BCB292",
"B c #C6BB98",
"N c #CABF9C",
"M c #CCC19D",
"! c #CCC19C",
"~ c #CABF9A",
"^ c #C7BD99",
"/ c #BFB694",
"( c #B3AB8A",
") c #A69E80",
"_ c #928B70",
"` c #78725B",
"[ c #5E5843",
"] c #3F3B2B",
"{ c #242217",
"} c #100F0A",
"| c #0C0D0B",
/* pixels */
"                                            .Xo    O+@#$%&*=-;:>,<1234567#@+O    8X.                                            ",
"                                         .X9   0qwertyuipasdfghjklzxcvabnmQWERwqT   9X.                                         ",
"                                       Yo   UIOPASDFGHJKLZXCVBNM!~^/()_`[]{}|     IU   oY                                       ",
"                                     X                                                                                          ",
"                                   X                           ^^                                                               ",
"                                                                                                                                ",
"                               Y                                                                Y                               ",
"                             .o                                                                  o.                             ",
"                                                                                                                                ",
"                          .                                                     D                    .                          ",
"                         Y                                                                            Y                         ",
"                        8                                                                              o                        ",
"                                                                                                                                ",
"                     .                 p                                                                  .                     ",
"                    Y                                                                                      Y                    ",
"                                                                                                                                ",
"                  X                                                                                                             ",
"                                                                                                                                ",
"                                                                                                                                ",
"               Y                                                                                                Y               ",
"              Y                                                                                                  Y              ",
"             .                                                                                                    .             ",
"            .                                                                                                      .            ",
"            o                          b                                                                           o            ",
"           8                                                                                                        o           ",
"          Y                                                                                                                     ",
"         .9                                                                                                           .         ",
"         o                                                                                                                      ",
"                                                                                               D                       9        ",
"       .                                                                                                                .       ",
"                                                                                                                        9       ",
"      Y                                                                                                                         ",
"      9                                                                                                                  9      ",
"              D                                                                                                           9     ",
"                       D                                                                                                        ",
"                                                              M                                                            9    ",
"     Y                                                               |                                                    Y     ",
"                                                                         N                                                  9   ",
"   9O      b                                                                                                                    ",
"  Y                                                                                                                             ",
"                                                                                                                                ",
" .                                                                                                                              ",
"                                                                                                          D                   9 ",
" 9                                                                                                                              ",
". +                                                                                                                          +  ",
"                                                                                                                               9",
"                                                                                                                                ",
"                                                                                                                                ",
"                                                                                                                                ",
"                                                                                                    ~                           ",
"                                                                         ^                                                      ",
"                                   }                                                                                           O",
"                                                                                                                                ",
"                                                                                                                                ",
"                                                                                                                                ",
"          sv                                                                                                                    ",
"                                                                              a                                                 ",
"                                                               !                                                                ",
"                                                                                      B                                         ",
"                                                                                                                                ",
"                                                                                                                                ",
"                                                                                                                                ",
"                           f                                                                                                    ",
"                                                                                                                      c         ",
"                                                                                                                                ",
"                                                                                                                                ",
"                                                                                  s                                             ",
"                                                                                                                                ",
"        s  d                                                                                                                    ",
"                                                                                                |                               ",
"                                                                                                                                ",
"                                                                                           s                                    ",
"                                                                                                                                ",
"                                                                                                                                ",
"                                                                                                                                ",
"                                                                                                                                ",
"                                                                                                                                ",
"                  D                                                                                                             ",
"       b                                                                                                                        ",
"                                                                                                                                ",
" T                                      s                                                                                       ",
"                                                                  v                                                             ",
"                                                                                                                            a   ",
". +                                                                                                                             ",
"                                                                                                                                ",
" 9                                                                                                                              ",
"                                                                                                                                ",
"                                                                                                                                ",
"                                                                                  ^                                             ",
"                                                                                                                                ",
"   9                                                                                                                            ",
"     Y                                           B                                                                        Y     ",
"    9                                                                                                                           ",
"                                                                                                                                ",
"     9                                                                                                                          ",
"                                                                                        D                                       ",
"                                                             B                                                                  ",
"       9                                                                                                                        ",
"                                                                                                                                ",
"        9                                                                                                                       ",
"                                                                                                                                ",
"                                                                                                                                ",
"                                                                                                                                ",
"                                                                                                                                ",
"                                                                                                                                ",
"                                                                                                                                ",
"                                                                                                                                ",
"                                                                                                                                ",
"                                                                                                                                ",
"                9                                                                                              9                ",
"                 9                                                                                            9                 ",
"                  9                                                                                          9                  ",
"                   9                                                                                        9                   ",
"                                                                                                                                ",
"                     .                                                                                                          ",
"                                                                                                                                ",
"                                                                  N                                                             ",
"                                                                                                                                ",
"                                                                                                     .                          ",
"                            9                                                                      9                            ",
"                                                                                                                                ",
"                                                                                                                                ",
"                                 9                                                            9                                 ",
"                                   9                     B                               O  9                                   ",
"                                     9                                                    9                                     ",
"                                            U                                      U                                            ",
"                                          9                                          9                                          ",
"                                            .9      +                      +      9.                                            "
};