/* XPM */
static char *lordtrollcoin64[] = {
/* columns rows colors chars-per-pixel */
"64 64 2483 1 ",
"  c None",
". c None",
"X c None",
"o c None",
"O c #837D67",
"+ c None",
"@ c None",
"# c #56575B",
"$ c #4A4C4D",
"% c #494949",
"& c #494947",
"* c #4B4A47",
"= c #4C4A46",
"- c #494843",
"; c #4A4946",
": c #494A4A",
"> c #4D4E50",
", c #5D5F60",
"< c None",
"1 c None",
"2 c None",
"3 c None",
"4 c None",
"5 c None",
"6 c None",
"7 c #636668",
"8 c #4B4C49",
"9 c #4F4E49",
"0 c #676355",
"q c #857F68",
"w c #9E9678",
"e c #B3A988",
"r c #C0B693",
"t c #C9BD98",
"y c #CEC29C",
"u c #CDC29B",
"i c #C9BF99",
"p c #B1A787",
"a c #9D9477",
"s c #827B64",
"d c #636051",
"f c #4F4E47",
"g c #494B49",
"h c #66686C",
"j c None",
"k c None",
"l c None",
"z c None",
"x c None",
"c c #4A4B4A",
"v c #59574C",
"b c #88836F",
"n c #BDB291",
"m c #E0D4AC",
"Q c #E8DDB5",
"W c #D9CEA7",
"E c #C2B896",
"R c #A49C7F",
"T c #918A70",
"Y c #837D66",
"U c #7A7560",
"I c #7D7962",
"P c #8E876F",
"A c #A49B7E",
"S c #C0B593",
"D c #DACFA6",
"F c #E6DBB1",
"G c #DCD0A6",
"H c #B5AA88",
"J c #857E69",
"K c #555348",
"L c #4A4A49",
"Z c None",
"C c None",
"V c None",
"B c None",
"N c #5F6163",
"M c #454641",
"! c #6E6B5A",
"~ c #B8AF8F",
"^ c #E9DCB4",
"/ c #E1D5B0",
"( c #AAA185",
") c #666250",
"_ c #36362E",
"` c #292924",
"[ c #171918",
"] c #242522",
"{ c #101214",
"} c #191B1B",
"| c #272723",
/* pixels */
"                  .X  oO+@#$%&*=-;&:>,<123  X.                  ",
"                .4  567890qwertyuirpasdfghj5  4.                ",
"               k lzxcvbnmQWERTYUIOPASDFGHJKLZzX k               ",
"             CV BNM!~^/()_`[]{}|[              B VC             ",
"            X                                      X            ",
"           4                                        4           ",
"         .                                            .         ",
"        .V                                            V.        ",
"       .V                                              V.       ",
"      .                                                  .      ",
"     V4                                                  4V     ",
"     X                                                          ",
"    ko                                                    lk    ",
"   C                                                        C   ",
"   4.                                       [              .4   ",
"  ko                                                         k  ",
" .V                                                          V. ",
" Xl                                                             ",
".V                  q                                         V.",
"Xo                                                             X",
"V                                  r                           V",
"                                      ~                        o",
"                                                                ",
"5                                                               ",
"                                                                ",
"                                                                ",
"                                                                ",
"                                                                ",
"                                                                ",
"                                                                ",
"                                                          d     ",
"                                                                ",
"                                                                ",
"                                                                ",
"                                                                ",
"                                                                ",
"                                                                ",
"                                                e               ",
"                                                                ",
"                                                                ",
"5                                                               ",
"                                                                ",
"                                                                ",
"V                                                             4.",
"                                                                ",
"VV                        e                                   .V",
"                                                                ",
" VV                                                          .V ",
"  4l                                                         4  ",
"   4.                                                      .    ",
"                                                                ",
"    4                                                     l4    ",
"                                                         X      ",
"     V4                      }                          X4V     ",
"      V                                                  V      ",
"       VV                                        |     VV       ",
"        VV       ]                }                   VV        ",
"         V                           }                V         ",
"           4        ]                              X4           ",
"                                                                ",
"              VX                                 V              ",
"               4                        m     X 4               ",
"                V4  5                      5X 4V                ",
"                  V   l                   3  V                  "
};