/* XPM */
static char *lordtrollcoin32[] = {
/* columns rows colors chars-per-pixel */
"32 32 796 1 ",
"  c None",
". c None",
"X c None",
"o c None",
"O c #656152",
"+ c #8A8577",
"@ c #908C76",
"# c #948D78",
"$ c #989179",
"% c #979178",
"& c #958E79",
"* c #928C77",
"= c #878474",
"- c None",
"; c None",
": c None",
"> c None",
", c #807E6F",
"< c #99937C",
"1 c #A0987F",
"2 c #8C856E",
"3 c #79745F",
"4 c #6E6956",
"5 c #5D5A4A",
"6 c #5E5B4C",
"7 c #676352",
"8 c #77725D",
"9 c #8C866D",
"0 c #A0987C",
"q c #999279",
"w c #7D796A",
"e c None",
"r c None",
"t c None",
"y c #6A685F",
"u c #A09A80",
"i c #999279",
"p c #756F5D",
"a c #514F43",
"s c #666353",
"d c #575448",
"f c #6D6959",
"g c #605C4E",
"h c #434038",
"j c #424139",
"k c #1A1C1C",
"l c #575347",
"z c #45443B",
"x c #6E6957",
"c c #9C947A",
"v c #A1997E",
"b c #646359",
"n c None",
"m c #8A8572",
"Q c #AAA385",
"W c #666352",
"E c #4C4B41",
"R c #676454",
"T c #6B6757",
"Y c #928C74",
"U c #777360",
"I c #686555",
"P c #6A6757",
"A c #535045",
"S c #49473D",
"D c #676453",
"F c #6C6A58",
"G c #696656",
"H c #3A3A33",
"J c #605D4E",
"K c #AEA586",
"L c #85806C",
"Z c None",
"C c #958E78",
"V c #979176",
"B c #4E4D42",
"N c #5B584C",
"M c #8F8A72",
"! c #615F50",
"~ c #43423A",
"^ c #5A5749",
"/ c #6D6A58",
"( c #7E7863",
") c #827D66",
"_ c #837E67",
"` c #6A6655",
"[ c #625F4F",
"] c #6D6958",
"{ c #676454",
"} c #716E5C",
"| c #827E68",
/* pixels */
"      .X  oO+@#$%&*=-o  X.      ",
"     ;: >,<1234567890qwe r;     ",
"    X tyuipasdfghjklzxcvbt X    ",
"   X nmQWERTYUIOPASDFGHJKLZ X   ",
"  X XCVBNM!~^/()_`[]{}|      X  ",
" ;:                          :; ",
".X                 P          X.",
"X                               ",
".                               ",
"                                ",
"                                ",
"                                ",
"                                ",
"                                ",
"                                ",
"     9                          ",
"                                ",
"                                ",
"                                ",
"                                ",
"                                ",
"                                ",
"      Q                         ",
"                                ",
"                                ",
".                              .",
"           4       O            ",
"   :                        :   ",
"   X    6                   X   ",
"    X t    a             t:X    ",
"              7                 ",
"      .                  .      "
};